X:11
T:Paddy in London
S:Trad, arr. Paddy O'Brien
R:jig
E:10
I:speed 300
M:6/8
K:D
A1/2G1/2|FDF ABc|ded def|AGF ~G2A|BGE EAG|\
FDF ABc|ded def|AGF BAG|FDD D2:|\
e|fdf afd|gfe dBG|AGF ~G2A|1 BGE ~E2g|\
fdf afd|gfe dBG|AGF BAG|FDD D2:|2 BGE EAG|\
FDF ABc|ded def|AGF BAG|FDD D2||\
c1/2d1/2|ecA Agf|edc ~d2B|AGF ~G2A|BGE Efg|agf gfe|\
ded def|AGF BAG|FDD D2:||**
